X: 40934
T: Trip To Birmingham, The
R: reel
M: 4/4
K: Gmajor
GE|:DGGF ~G2B/c/d|~e3d edBA|~G3B dG~G2|~A3G EGDz|
DGGF ~G2B/c/d|e2 ed efga|bg~g2 ageg|1 dBAB G3 E:|2 dBAB ~G3z||
|:dggf ~g3a|bzag edBA|~G3B dG~G2|~A3G EGDz|
dggf ~g3a|bzag edBA|~G3B dG~G2|1 AGFA ~G3z:|2 AGFA ~G3z||

